applications/rhythmbox.svg

<svg 
    xmlns="http://www.w3.org/2000/svg" width="48" height="48">
    <defs>
        <filter id="a">
            <feGaussianBlur in="SourceAlpha" stdDeviation=".8"/>
            <feOffset dy=".4"/>
            <feComponentTransfer>
                <feFuncA slope=".3" type="linear"/>
            </feComponentTransfer>
            <feMerge>
                <feMergeNode/>
                <feMergeNode in="SourceGraphic"/>
            </feMerge>
        </filter>
        <clipPath id="b">
            <rect fill="#cfd8dc" fill-rule="evenodd" width="32" height="44" x="8" y="-30" rx="2" ry="2"/>
        </clipPath>
    </defs>
    <g transform="translate(0 32)">
        <rect fill="#cfd8dc" fill-rule="evenodd" width="32" height="44" x="8" y="-30" filter="url(#a)" rx="2" ry="2"/>
        <path fill-rule="evenodd" stroke="#000" stroke-linecap="round" stroke-linejoin="round" stroke-width="4" opacity=".1" d="M16-6l16-16 10 10v32z" clip-path="url(#b)"/>
        <circle fill="#ffc107" cx="24" cy="-14" r="10"/>
        <path fill="#212121" d="M24 6a12 12 0 0 0-6.621 2H16c-1.108 0-2 .892-2 2v1.38A12 12 0 0 0 12 18a12 12 0 0 0 2 6.621V26c0 1.108.892 2 2 2h1.38A12 12 0 0 0 24 30a12 12 0 0 0 6.621-2H32c1.108 0 2-.892 2-2v-1.38A12 12 0 0 0 36 18a12 12 0 0 0-2-6.621V10c0-1.108-.892-2-2-2h-1.38A12 12 0 0 0 24 6zm0 4a8 8 0 0 1 8 8 8 8 0 0 1-8 8 8 8 0 0 1-8-8 8 8 0 0 1 8-8zm0 4a4 4 0 0 0-4 4 4 4 0 0 0 4 4 4 4 0 0 0 4-4 4 4 0 0 0-4-4z" filter="url(#a)" transform="translate(0 -32)"/>
        <circle fill="#90a4ae" fill-opacity=".941" cx="32" cy="6" r="4"/>
    </g>
</svg>

<?xml version="1.0" encoding="UTF-8" standalone="no"?>
<!-- Created with Inkscape (http://www.inkscape.org/) -->

<svg
   xmlns:dc="http://purl.org/dc/elements/1.1/"
   xmlns:cc="http://creativecommons.org/ns#"
   xmlns:rdf="http://www.w3.org/1999/02/22-rdf-syntax-ns#"
   xmlns:svg="http://www.w3.org/2000/svg"
   xmlns="http://www.w3.org/2000/svg"
   xmlns:sodipodi="http://sodipodi.sourceforge.net/DTD/sodipodi-0.dtd"
   xmlns:inkscape="http://www.inkscape.org/namespaces/inkscape"
   width="48"
   height="48"
   id="svg4152"
   version="1.1"
   inkscape:version="0.92.1 r"
   viewBox="0 0 48 48"
   sodipodi:docname="rhythmbox.svg">
  <defs
     id="defs4154">
    <filter
       style="color-interpolation-filters:sRGB;"
       inkscape:label="Drop Shadow"
       id="filter827">
      <feFlood
         flood-opacity="0.298039"
         flood-color="rgb(0,0,0)"
         result="flood"
         id="feFlood817" />
      <feComposite
         in="flood"
         in2="SourceGraphic"
         operator="in"
         result="composite1"
         id="feComposite819" />
      <feGaussianBlur
         in="composite1"
         stdDeviation="0.8"
         result="blur"
         id="feGaussianBlur821" />
      <feOffset
         dx="0"
         dy="0.4"
         result="offset"
         id="feOffset823" />
      <feComposite
         in="SourceGraphic"
         in2="offset"
         operator="over"
         result="composite2"
         id="feComposite825" />
    </filter>
    <filter
       style="color-interpolation-filters:sRGB;"
       inkscape:label="Drop Shadow"
       id="filter902">
      <feFlood
         flood-opacity="0.298039"
         flood-color="rgb(0,0,0)"
         result="flood"
         id="feFlood892" />
      <feComposite
         in="flood"
         in2="SourceGraphic"
         operator="in"
         result="composite1"
         id="feComposite894" />
      <feGaussianBlur
         in="composite1"
         stdDeviation="0.8"
         result="blur"
         id="feGaussianBlur896" />
      <feOffset
         dx="0"
         dy="0.4"
         result="offset"
         id="feOffset898" />
      <feComposite
         in="SourceGraphic"
         in2="offset"
         operator="over"
         result="composite2"
         id="feComposite900" />
    </filter>
    <filter
       style="color-interpolation-filters:sRGB"
       inkscape:label="Drop Shadow"
       id="filter827-3">
      <feFlood
         flood-opacity="0.298039"
         flood-color="rgb(0,0,0)"
         result="flood"
         id="feFlood817-6" />
      <feComposite
         in="flood"
         in2="SourceGraphic"
         operator="in"
         result="composite1"
         id="feComposite819-7" />
      <feGaussianBlur
         in="composite1"
         stdDeviation="0.8"
         result="blur"
         id="feGaussianBlur821-5" />
      <feOffset
         dx="0"
         dy="0.4"
         result="offset"
         id="feOffset823-3" />
      <feComposite
         in="SourceGraphic"
         in2="offset"
         operator="over"
         result="composite2"
         id="feComposite825-5" />
    </filter>
    <clipPath
       clipPathUnits="userSpaceOnUse"
       id="clipPath4534">
      <rect
         style="color:#000000;clip-rule:nonzero;display:inline;overflow:visible;visibility:visible;opacity:1;isolation:auto;mix-blend-mode:normal;color-interpolation:sRGB;color-interpolation-filters:linearRGB;solid-color:#000000;solid-opacity:1;fill:#cfd8dc;fill-opacity:1;fill-rule:evenodd;stroke:none;stroke-width:0.1;stroke-linecap:round;stroke-linejoin:round;stroke-miterlimit:4;stroke-dasharray:none;stroke-dashoffset:0;stroke-opacity:0.25098039;color-rendering:auto;image-rendering:auto;shape-rendering:auto;text-rendering:auto;enable-background:accumulate"
         id="rect4536"
         width="32"
         height="44"
         x="8"
         y="-30"
         ry="2"
         rx="2" />
    </clipPath>
  </defs>
  <sodipodi:namedview
     id="base"
     pagecolor="#ededed"
     bordercolor="#000000"
     borderopacity="0.49803922"
     inkscape:pageopacity="0"
     inkscape:pageshadow="2"
     inkscape:zoom="5.5494505"
     inkscape:cx="9.7941654"
     inkscape:cy="32.993722"
     inkscape:current-layer="layer1"
     showgrid="false"
     inkscape:grid-bbox="true"
     inkscape:document-units="px"
     inkscape:showpageshadow="false"
     borderlayer="true"
     inkscape:window-width="1920"
     inkscape:window-height="1012"
     inkscape:window-x="0"
     inkscape:window-y="32"
     inkscape:window-maximized="1">
    <inkscape:grid
       type="xygrid"
       id="grid4700"
       color="#000000"
       opacity="0.0627451"
       empcolor="#000000"
       empopacity="0.1254902"
       empspacing="4"
       spacingx="2"
       spacingy="2" />
  </sodipodi:namedview>
  <metadata
     id="metadata4157">
    <rdf:RDF>
      <cc:Work
         rdf:about="">
        <dc:format>image/svg+xml</dc:format>
        <dc:type
           rdf:resource="http://purl.org/dc/dcmitype/StillImage" />
        <dc:title />
      </cc:Work>
    </rdf:RDF>
  </metadata>
  <g
     id="layer1"
     inkscape:label="Layer 1"
     inkscape:groupmode="layer"
     transform="translate(0,32)">
    <rect
       style="color:#000000;clip-rule:nonzero;display:inline;overflow:visible;visibility:visible;opacity:1;isolation:auto;mix-blend-mode:normal;color-interpolation:sRGB;color-interpolation-filters:linearRGB;solid-color:#000000;solid-opacity:1;fill:#cfd8dc;fill-opacity:1;fill-rule:evenodd;stroke:none;stroke-width:0.1;stroke-linecap:round;stroke-linejoin:round;stroke-miterlimit:4;stroke-dasharray:none;stroke-dashoffset:0;stroke-opacity:0.25098039;color-rendering:auto;image-rendering:auto;shape-rendering:auto;text-rendering:auto;enable-background:accumulate;filter:url(#filter827)"
       id="rect4142-6-3"
       width="32"
       height="44"
       x="8"
       y="-30"
       ry="2"
       rx="2" />
    <path
       style="fill:#000000;fill-rule:evenodd;stroke:#000000;stroke-width:4;stroke-linecap:round;stroke-linejoin:round;stroke-opacity:1;stroke-miterlimit:4;stroke-dasharray:none;fill-opacity:1;opacity:0.1"
       d="m 16,-6 16,-16 10,10 v 32 z"
       id="path4499"
       inkscape:connector-curvature="0"
       sodipodi:nodetypes="ccccc"
       clip-path="url(#clipPath4534)" />
    <circle
       style="color:#000000;clip-rule:nonzero;display:inline;overflow:visible;visibility:visible;opacity:1;isolation:auto;mix-blend-mode:normal;color-interpolation:sRGB;color-interpolation-filters:linearRGB;solid-color:#000000;solid-opacity:1;fill:#ffc107;fill-opacity:1;fill-rule:nonzero;stroke:none;stroke-width:4;stroke-linecap:round;stroke-linejoin:round;stroke-miterlimit:4;stroke-dasharray:none;stroke-dashoffset:0;stroke-opacity:1;paint-order:normal;color-rendering:auto;image-rendering:auto;shape-rendering:auto;text-rendering:auto;enable-background:accumulate"
       id="path904"
       cx="24"
       cy="-14"
       r="10" />
    <path
       style="color:#000000;clip-rule:nonzero;display:inline;overflow:visible;visibility:visible;opacity:1;isolation:auto;mix-blend-mode:normal;color-interpolation:sRGB;color-interpolation-filters:linearRGB;solid-color:#000000;solid-opacity:1;fill:#212121;fill-opacity:1;fill-rule:nonzero;stroke:none;stroke-width:4;stroke-linecap:round;stroke-linejoin:round;stroke-miterlimit:4;stroke-dasharray:none;stroke-dashoffset:0;stroke-opacity:1;paint-order:normal;color-rendering:auto;image-rendering:auto;shape-rendering:auto;text-rendering:auto;enable-background:accumulate;filter:url(#filter902)"
       d="M 24 6 A 12 12 0 0 0 17.378906 8 L 16 8 C 14.892 8 14 8.892 14 10 L 14 11.380859 A 12 12 0 0 0 12 18 A 12 12 0 0 0 14 24.621094 L 14 26 C 14 27.108 14.892 28 16 28 L 17.380859 28 A 12 12 0 0 0 24 30 A 12 12 0 0 0 30.621094 28 L 32 28 C 33.108 28 34 27.108 34 26 L 34 24.619141 A 12 12 0 0 0 36 18 A 12 12 0 0 0 34 11.378906 L 34 10 C 34 8.892 33.108 8 32 8 L 30.619141 8 A 12 12 0 0 0 24 6 z M 24 10 A 8 8 0 0 1 32 18 A 8 8 0 0 1 24 26 A 8 8 0 0 1 16 18 A 8 8 0 0 1 24 10 z M 24 14 A 4 4 0 0 0 20 18 A 4 4 0 0 0 24 22 A 4 4 0 0 0 28 18 A 4 4 0 0 0 24 14 z "
       transform="translate(0,-32)"
       id="rect829" />
    <circle
       style="color:#000000;clip-rule:nonzero;display:inline;overflow:visible;visibility:visible;opacity:1;isolation:auto;mix-blend-mode:normal;color-interpolation:sRGB;color-interpolation-filters:linearRGB;solid-color:#000000;solid-opacity:1;fill:#90a4ae;fill-opacity:0.94117647;fill-rule:nonzero;stroke:none;stroke-width:4;stroke-linecap:round;stroke-linejoin:round;stroke-miterlimit:4;stroke-dasharray:none;stroke-dashoffset:0;stroke-opacity:1;paint-order:normal;color-rendering:auto;image-rendering:auto;shape-rendering:auto;text-rendering:auto;enable-background:accumulate"
       id="path831-3-6-7"
       cx="32"
       cy="6"
       r="4" />
  </g>
</svg>
